X: 17081
T: Hector The Hero
R: waltz
M: 3/4
K: Dmajor
F3/2E/D|B3/2A/F|(A3|A2)D/E/|
F3/2E/D|B3/2A/F|(E3|E2)D/E/|
F3/2E/D|B3/2A/F|A D E|F/d3/2B|
A/D3/2F/G/|E2-E/D/|D3-|D3/2:|
B3/2A/B|d3/2c/B|A2 B|A2F/A/|
B2A/F/|A D F/D/|(E3|E3/2) A/ d/c/|
B3/2A/B|d3/2c/B|ADE|F/d3/2B|
A/D3/2F/G/|E2-E/D/|D3-|D3/2:|

